X:5
T:B005-  Aimable Vainqueur
S:via BBBM, from 'The Monthly Mask of Vocal Music', Mar. 1704
Q:1/4=120
L:1/4
M:3/4
K:Dm
c|A3/2G/2F|F3/2 F/2 G|AGF|c2 c|fcd|A3/2 B/2 c|\
BA3/2G/2|G2c|Ad d3/4e/4|(=B/2A/2G)g|d3/2e/2f|\
e3/2d/2c|d d3/2 c/2|c2||c|f3/2 g/2a|ddd|\
gef|^cAe|fd3/2 f/2|eAd|(d/2e/2)e3/2 d/2|d2f|\
cdB|A2A|AGF| c2c|dB3/2d/2|cAc|dB3/2d/2|cAc|\
BA3/2G/2|G2g|af3/2a/2|gcg|af3/2a/2|gcf|(f/2g/2) g3/2f/2|f2||
